X:17
T: General Monroe, S. 516
N: I0516
O: Irland
S: O BOYLE, Sean: 25 Irish Folksongs, Dublin 1976]
R: Ballade, historisches Kriegslied]
M: 3/4
L: 1/8
K: G
GA | B2G2EG | D2B,2D2 | EG3G2 | G4
GAB | c2d2e2 | d4B2 | A2G2A2 | B4
GAB | c2d2e2 | dd3B2 | A2G2A2 | B4
BA | B2G2EG | D2B,2D2 | EFG3G | G4

